X: 23424
T: Les Quatre Branles
R: barndance
M: 4/4
K: Cmajor
e2 ed cBcd|efgf e2 d2|e2 ed cBcd|ef g2 d4:|
|:efga gfed|e2 c2 c2 f2|f2 e2 d4:|:ef g2 ef g2|
ef g2 f2 e2|a2 ag f2 e2|a2 ag f2 e2|efge fedc|
BAcB c2 gf|e2 dc d2 gf|e2 d2 c2 gf|e2 dc d2 gf|e2 d2 c4:|

